X:1
T:Sengoku Ambition (10s)
C:Cascade
M:4/4
L:1/8
Q:1/4=140
K:Dm
V:1
|: D2 F2 A2 d2 | c2 A2 F2 D2 | E2 G2 c2 e2 | d2 c2 A2 F2 | D2 A2 d2 f2 | e2 d2 c2 A2 | G2 F2 E2 D2 | D8 :|
